X: 1
T: Da Foula Reel
M: 6/8
L: 1/8
R: jig
K: Gmaj
D |:(EG)G G2e | edB BAG | G2B A2B | G2A GED |
(EG)G G2e | edB BAG | G2B A2B | d3 D3 :|
|:edB ABd | edB BAG | {f}g2B A2B | G2A GED|
edB ABd | edB BAG | {f}g2B A2B | d3 D3:|
